X:334
T: Soldaten faát euch Mut (4-33), S. 46
N: P0594
O: Lothringen
S: PINCK, Louis: Verklingende Weisen Bd 4, Kassel 1939]
R: Kriegslied, Soldatenlied]
M: 2/4
L: 1/16
K: G
D4 | G2D2B,2D2 | G6
B2 | A2G2D2D2 | E6
D2 | G2B2d2c2 | B2A2G2
G2 | c3Bd2c2 | B2A2G4
B3AG2A2 | D4
D2D2 | G4G4 | A2A2d4 | G4

